svgs/vr_securego.svg

<svg width="192" height="192" viewBox="0 0 192 192" fill="none" xmlns="http://www.w3.org/2000/svg">
<path d="M170.266 84.051L170.528 20.2544L21.4065 19.994L21.7212 83.6344L68.5086 83.8427L62.4241 55.9284H44.5904L37.6667 28.6391L85.7129 29.0557L95.3641 70.0939L102.498 41.5546C106.118 35.1498 111.149 30.1457 120.331 29.264H153.481L144.669 65.9276L124.318 65.0943L125.786 55.0951L120.751 83.8427L170.266 84.051Z" stroke="black" stroke-width="8" stroke-linecap="round" stroke-linejoin="round"/>
<path d="M21.4064 98.4726L72.716 98.5773L75.2446 110.297L21.301 110.192L21.4064 98.4726Z" stroke="black" stroke-width="8" stroke-linecap="round" stroke-linejoin="round"/>
<path d="M170.594 98.525L118.442 98.6296L115.913 110.349L170.699 110.244L170.594 98.525Z" stroke="black" stroke-width="8" stroke-linecap="round" stroke-linejoin="round"/>
<path d="M82.2401 148.324C80.4778 160.169 84.7313 168.137 95.3544 172C105.58 168.133 110.621 160.621 108.469 148.052C99.7258 145.023 90.983 144.124 82.2401 148.324Z" stroke="black" stroke-width="8.00001" stroke-linecap="round" stroke-linejoin="round"/>
<path d="M86.4338 137.603C85.1005 131.106 90.263 126.837 95.4516 126.686C100.8 126.53 105.859 132.029 104.64 137.603" stroke="black" stroke-width="7.99999" stroke-linecap="round" stroke-linejoin="round"/>
</svg>

<svg xmlns="http://www.w3.org/2000/svg" width="192" height="192" fill="none" viewBox="0 0 192 192"><path stroke="#000" stroke-linecap="round" stroke-linejoin="round" stroke-width="8" d="m170.266 84.051.262-63.797-149.121-.26.314 63.64 46.788.209-6.085-27.915H44.59L37.667 28.64l48.046.417 9.651 41.038 7.134-28.54c3.62-6.404 8.651-11.408 17.833-12.29h33.15l-8.812 36.664-20.351-.834 1.468-9.999-5.035 28.748 49.515.208ZM21.406 98.473l51.31.104 2.529 11.72-53.944-.105.105-11.72ZM170.594 98.525l-52.152.105-2.529 11.719 54.786-.105-.105-11.719ZM82.24 148.324c-1.762 11.845 2.491 19.813 13.114 23.676 10.226-3.867 15.267-11.379 13.115-23.948-8.743-3.029-17.486-3.928-26.229.272ZM86.434 137.603c-1.334-6.497 3.829-10.766 9.018-10.917 5.348-.156 10.407 5.343 9.188 10.917"/></svg>
